src/images_karasa_jaga_svg/cmd/lc_symbolshapes.forbidden.svg

<svg height="24" viewBox="0 0 24 24" width="24" xmlns="http://www.w3.org/2000/svg" xmlns:xlink="http://www.w3.org/1999/xlink"><linearGradient id="a" gradientUnits="userSpaceOnUse" x1="5.820313" x2="122.17969" y1="64" y2="64"><stop offset="0" stop-color="#7c9fcf"/><stop offset=".5" stop-color="#7c9ece"/><stop offset="1" stop-color="#7b9dcf"/></linearGradient><linearGradient id="b" gradientUnits="userSpaceOnUse" x1="63.9991" x2="63.9991" y1="122.1819" y2=".0018"><stop offset="0" stop-color="#fff"/><stop offset=".46428573" stop-color="#fff"/><stop offset=".78125" stop-color="#f1f1f1"/><stop offset=".90625" stop-color="#eaeaea"/><stop offset="1" stop-color="#dfdfdf"/></linearGradient><g transform="matrix(.171875 0 0 .171875 1.000155 .999845)"><path d="m64 5.8203125a58.179371 58.179371 0 0 0 -58.1796875 58.1796875 58.179371 58.179371 0 0 0 58.1796875 58.17969 58.179371 58.179371 0 0 0 58.17969-58.17969 58.179371 58.179371 0 0 0 -58.17969-58.1796875zm0 23.3886715a34.791618 34.791618 0 0 1 34.791016 34.791016 34.791618 34.791618 0 0 1 -3.41211 14.923828l-46.310547-46.310547a34.791618 34.791618 0 0 1 14.931641-3.404297zm-31.380859 19.869141 46.308593 46.308594a34.791618 34.791618 0 0 1 -14.927734 3.404297 34.791618 34.791618 0 0 1 -34.791016-34.791016 34.791618 34.791618 0 0 1 3.410157-14.921875z" fill="url(#a)"/><path d="m64 11.628906a52.370663 52.370663 0 0 0 -52.371094 52.371094 52.370663 52.370663 0 0 0 52.371094 52.37109 52.370663 52.370663 0 0 0 52.37109-52.37109 52.370663 52.370663 0 0 0 -52.37109-52.371094zm0 11.642578a40.728992 40.728992 0 0 1 40.72852 40.728516 40.728992 40.728992 0 0 1 -8.146489 24.355469l-56.943359-56.94336a40.728992 40.728992 0 0 1 24.361328-8.140625zm-32.583984 16.373047 56.943359 56.94336a40.728992 40.728992 0 0 1 -24.359375 8.140629 40.728992 40.728992 0 0 1 -40.728516-40.72852 40.728992 40.728992 0 0 1 8.144532-24.355469z" fill="url(#b)"/></g></svg>

<?xml version="1.0" encoding="UTF-8" standalone="no"?>
<svg
   xmlns:dc="http://purl.org/dc/elements/1.1/"
   xmlns:cc="http://creativecommons.org/ns#"
   xmlns:rdf="http://www.w3.org/1999/02/22-rdf-syntax-ns#"
   xmlns:svg="http://www.w3.org/2000/svg"
   xmlns="http://www.w3.org/2000/svg"
   xmlns:xlink="http://www.w3.org/1999/xlink"
   xmlns:sodipodi="http://sodipodi.sourceforge.net/DTD/sodipodi-0.dtd"
   xmlns:inkscape="http://www.inkscape.org/namespaces/inkscape"
   height="128"
   viewBox="0 0 128 128"
   width="128"
   version="1.1"
   id="svg31"
   sodipodi:docname="lc_symbolshapes.forbidden.svg"
   inkscape:version="0.92.3 (unknown)"
   inkscape:export-filename="/home/rizmut/Dokumen/Rizmut/Github/libreoffice-style-karasa-jaga/build/images_karasa_jaga/cmd/lc_symbolshapes.forbidden.png"
   inkscape:export-xdpi="16.5"
   inkscape:export-ydpi="16.5">
  <metadata
     id="metadata37">
    <rdf:RDF>
      <cc:Work
         rdf:about="">
        <dc:format>image/svg+xml</dc:format>
        <dc:type
           rdf:resource="http://purl.org/dc/dcmitype/StillImage" />
        <dc:title></dc:title>
      </cc:Work>
    </rdf:RDF>
  </metadata>
  <defs
     id="defs35">
    <linearGradient
       id="linearGradient3369">
      <stop
         id="stop3372"
         offset="0"
         style="stop-color:#ffffff;stop-opacity:1;" />
      <stop
         style="stop-color:#ffffff;stop-opacity:1;"
         offset="0.46428573"
         id="stop3374" />
      <stop
         style="stop-color:#f1f1f1;stop-opacity:1;"
         offset="0.78125"
         id="stop3376" />
      <stop
         id="stop3378"
         offset="0.90625"
         style="stop-color:#eaeaea;stop-opacity:1;" />
      <stop
         id="stop3384"
         offset="1"
         style="stop-color:#dfdfdf;stop-opacity:1;" />
    </linearGradient>
    <linearGradient
       id="linearGradient7422">
      <stop
         style="stop-color:#7c9fcf;stop-opacity:1"
         offset="0"
         id="stop7424" />
      <stop
         id="stop5348"
         offset="0.5"
         style="stop-color:#7c9ece;stop-opacity:1" />
      <stop
         id="stop7426"
         offset="1"
         style="stop-color:#7b9dcf;stop-opacity:1" />
    </linearGradient>
    <linearGradient
       inkscape:collect="always"
       xlink:href="#linearGradient7422"
       id="linearGradient1062"
       x1="5.8203125"
       y1="64"
       x2="122.17969"
       y2="64"
       gradientUnits="userSpaceOnUse" />
    <linearGradient
       inkscape:collect="always"
       xlink:href="#linearGradient3369"
       id="linearGradient1070"
       x1="63.9991"
       y1="122.1819"
       x2="63.9991"
       y2="0.0018"
       gradientUnits="userSpaceOnUse" />
  </defs>
  <sodipodi:namedview
     pagecolor="#ffffff"
     bordercolor="#666666"
     borderopacity="1"
     objecttolerance="10"
     gridtolerance="10"
     guidetolerance="10"
     inkscape:pageopacity="0"
     inkscape:pageshadow="2"
     inkscape:window-width="1366"
     inkscape:window-height="706"
     id="namedview33"
     showgrid="true"
     inkscape:zoom="1"
     inkscape:cx="-35.740166"
     inkscape:cy="28.38494"
     inkscape:window-x="-1"
     inkscape:window-y="-1"
     inkscape:window-maximized="0"
     inkscape:current-layer="svg31"
     inkscape:snap-global="true">
    <inkscape:grid
       type="xygrid"
       id="grid844"
       spacingx="5.8181"
       spacingy="5.8181"
       empspacing="1" />
  </sodipodi:namedview>
  <linearGradient
     id="a">
    <stop
       offset="0"
       stop-color="#f9f9fa"
       id="stop2" />
    <stop
       offset="1"
       stop-color="#f9f9fa"
       stop-opacity="0"
       id="stop4" />
  </linearGradient>
  <linearGradient
     id="b"
     gradientUnits="userSpaceOnUse"
     x1="42.276669"
     x2="-13.469376"
     xlink:href="#a"
     y1="50.867565"
     y2="104.97279" />
  <linearGradient
     id="c"
     gradientUnits="userSpaceOnUse"
     x1="-1.817377"
     x2="2.172436"
     xlink:href="#a"
     y1="55.003803"
     y2="116.784" />
  <path
     style="opacity:1;fill:url(#linearGradient1062);fill-opacity:1.0;stroke:none;stroke-width:4.44637871;stroke-linecap:round;stroke-linejoin:round;stroke-miterlimit:4;stroke-dasharray:none;stroke-dashoffset:0;stroke-opacity:1"
     d="M 64 5.8203125 A 58.179371 58.179371 0 0 0 5.8203125 64 A 58.179371 58.179371 0 0 0 64 122.17969 A 58.179371 58.179371 0 0 0 122.17969 64 A 58.179371 58.179371 0 0 0 64 5.8203125 z M 64 29.208984 A 34.791618 34.791618 0 0 1 98.791016 64 A 34.791618 34.791618 0 0 1 95.378906 78.923828 L 49.068359 32.613281 A 34.791618 34.791618 0 0 1 64 29.208984 z M 32.619141 49.078125 L 78.927734 95.386719 A 34.791618 34.791618 0 0 1 64 98.791016 A 34.791618 34.791618 0 0 1 29.208984 64 A 34.791618 34.791618 0 0 1 32.619141 49.078125 z "
     id="circle1030" />
  <path
     style="opacity:1;fill:url(#linearGradient1070);fill-opacity:1;stroke:none;stroke-width:4.00244617;stroke-linecap:round;stroke-linejoin:round;stroke-miterlimit:4;stroke-dasharray:none;stroke-dashoffset:0;stroke-opacity:1"
     d="M 64 11.628906 A 52.370663 52.370663 0 0 0 11.628906 64 A 52.370663 52.370663 0 0 0 64 116.37109 A 52.370663 52.370663 0 0 0 116.37109 64 A 52.370663 52.370663 0 0 0 64 11.628906 z M 64 23.271484 A 40.728992 40.728992 0 0 1 104.72852 64 A 40.728992 40.728992 0 0 1 96.582031 88.355469 L 39.638672 31.412109 A 40.728992 40.728992 0 0 1 64 23.271484 z M 31.416016 39.644531 L 88.359375 96.587891 A 40.728992 40.728992 0 0 1 64 104.72852 A 40.728992 40.728992 0 0 1 23.271484 64 A 40.728992 40.728992 0 0 1 31.416016 39.644531 z "
     id="path1028" />
</svg>
